X: 24282
T: Lost And Found, The
R: jig
M: 6/8
K: Gmajor
G3 dGG|edB dBA|G3 dGg|edB dBA|
G3 dGG|edB def|gge dBA|Bee dBA|
G3 dGG|edB dBA|G3 dGg|edB AGE|
G3 dGG|edB def|gge dBA|Bee dBA||
g3 bge|f3 afd|g3 bge|edB GBd|
g2a bge|f2g afa|bag agf|efg dBd|
g3 bge|f3 fga|g3 bge|edB GBd|
g2a bge|f2g afa|bag agf|efg dBA||

